sitelenpona/static/nimisin-1.svg

<svg xmlns="http://www.w3.org/2000/svg" xmlns:xlink="http://www.w3.org/1999/xlink" version="1.1" viewBox="17 135 1086 525">
   <path fill="currentColor" d="M67 499q0 -11 18 -14t40 -3.5t27 -5.5t18 -5q8 0 17 3t20.5 8.5t13.5 6.5q9 4 9 17q0 12 -17.5 15.5t-71.5 5.5l-68 2l-4 -18q-2 -10 -2 -12zM903 493q0 -16 20 -28t46 -12q65 0 75 8t10 31q0 20 -24 20q-15 0 -20 5t-16 1q-14 -5 -48 -8q-43 -4 -43 -17zM470 341l26 1 q25 2 49 2q94 0 101 -4q10 -6 18 -3q20 5 81 7q11 0 24 10q4 3 6.5 6t4.5 6t4 8.5t3.5 9t3 11t2 11t2 13t2.5 14.5q3 18 6.5 29t5 19.5t1.5 31.5q0 75 -7 87q-14 25 -49 25q-13 0 -31 6q-17 5 -70 5q-42 0 -111.5 -5.5t-117.5 -5.5h-33q-51 0 -72 -4.5t-37 -18.5 q-16 -15 -17 -39q0 -5 -3 -38t-3 -48q0 -13 7 -38t7 -34q0 -12 13 -25t25 -13t16 -4t65 -13t78 -9zM721 559q15 0 18.5 -5.5t3.5 -20.5v-10q0 -15 -4 -34t-5 -31q-3 -52 -15 -57q-18 -8 -35 -8q-2 0 -20 1t-49.5 2.5t-64.5 1.5q-88 1 -111 3t-48 10q-28 10 -46 10 q-2 0 -5 -0.5t-4 -0.5q-6 0 -7.5 5.5t-6.5 33.5q-4 20 -4 49q0 17 10 43l6 13h84q82 0 117 5q33 5 56 5q27 0 54 -2.5t41.5 -5t15.5 -3.5q4 -4 19 -4zM527 238q0 6 11 30t11 29q0 19 -22 19q-25 0 -40.5 -24t-15.5 -50q0 -66 16 -80q4 -3 11 -3q12 0 23 10.5t11 23.5 q0 5 -2.5 21.5t-2.5 23.5z"/>
</svg>

<svg xmlns="http://www.w3.org/2000/svg" xmlns:xlink="http://www.w3.org/1999/xlink" version="1.1" viewBox="17 135 1086 525">
  <g>
    <path fill="currentColor" d="M 67.0,499.0 Q 67.0,488.0 85.0,485.0 Q 103.0,482.0 125.0,481.5 Q 147.0,481.0 152.0,476.0 Q 157.0,471.0 170.0,471.0 Q 178.0,471.0 187.0,474.0 Q 196.0,477.0 207.5,482.5 Q 219.0,488.0 221.0,489.0 Q 230.0,493.0 230.0,506.0 Q 230.0,518.0 212.5,521.5 Q 195.0,525.0 141.0,527.0 L 73.0,529.0 L 69.0,511.0 Q 67.0,501.0 67.0,499.0 M 903.0,493.0 Q 903.0,477.0 923.0,465.0 Q 943.0,453.0 969.0,453.0 Q 1034.0,453.0 1044.0,461.0 Q 1054.0,469.0 1054.0,492.0 Q 1054.0,512.0 1030.0,512.0 Q 1015.0,512.0 1010.0,517.0 Q 1005.0,522.0 994.0,518.0 Q 980.0,513.0 946.0,510.0 Q 903.0,506.0 903.0,493.0 M 470.0,341.0 L 496.0,342.0 Q 521.0,344.0 545.0,344.0 Q 639.0,344.0 646.0,340.0 Q 656.0,334.0 664.0,337.0 Q 684.0,342.0 745.0,344.0 Q 756.0,344.0 769.0,354.0 Q 773.0,357.0 775.5,360.0 Q 778.0,363.0 780.0,366.0 Q 782.0,369.0 784.0,374.5 Q 786.0,380.0 787.5,383.5 Q 789.0,387.0 790.5,394.5 Q 792.0,402.0 792.5,405.5 Q 793.0,409.0 794.5,418.5 Q 796.0,428.0 797.0,433.0 Q 800.0,451.0 803.5,462.0 Q 807.0,473.0 808.5,481.5 Q 810.0,490.0 810.0,513.0 Q 810.0,588.0 803.0,600.0 Q 789.0,625.0 754.0,625.0 Q 741.0,625.0 723.0,631.0 Q 706.0,636.0 653.0,636.0 Q 611.0,636.0 541.5,630.5 Q 472.0,625.0 424.0,625.0 L 391.0,625.0 Q 340.0,625.0 319.0,620.5 Q 298.0,616.0 282.0,602.0 Q 266.0,587.0 265.0,563.0 Q 265.0,558.0 262.0,525.0 Q 259.0,492.0 259.0,477.0 Q 259.0,464.0 266.0,439.0 Q 273.0,414.0 273.0,405.0 Q 273.0,393.0 286.0,380.0 Q 299.0,367.0 311.0,367.0 Q 323.0,367.0 327.0,363.0 Q 331.0,359.0 392.0,350.0 Q 453.0,341.0 470.0,341.0 M 721.0,559.0 Q 736.0,559.0 739.5,553.5 Q 743.0,548.0 743.0,533.0 L 743.0,523.0 Q 743.0,508.0 739.0,489.0 Q 735.0,470.0 734.0,458.0 Q 731.0,406.0 719.0,401.0 Q 701.0,393.0 684.0,393.0 Q 682.0,393.0 664.0,394.0 Q 646.0,395.0 614.5,396.5 Q 583.0,398.0 550.0,398.0 Q 462.0,399.0 439.0,401.0 Q 416.0,403.0 391.0,411.0 Q 363.0,421.0 345.0,421.0 Q 343.0,421.0 340.0,420.5 Q 337.0,420.0 336.0,420.0 Q 330.0,420.0 328.5,425.5 Q 327.0,431.0 322.0,459.0 Q 318.0,479.0 318.0,508.0 Q 318.0,525.0 328.0,551.0 L 334.0,564.0 L 418.0,564.0 Q 500.0,564.0 535.0,569.0 Q 568.0,574.0 591.0,574.0 Q 618.0,574.0 645.0,571.5 Q 672.0,569.0 686.5,566.5 Q 701.0,564.0 702.0,563.0 Q 706.0,559.0 721.0,559.0 M 527.0,238.0 Q 527.0,244.0 538.0,268.0 Q 549.0,292.0 549.0,297.0 Q 549.0,316.0 527.0,316.0 Q 502.0,316.0 486.5,292.0 Q 471.0,268.0 471.0,242.0 Q 471.0,176.0 487.0,162.0 Q 491.0,159.0 498.0,159.0 Q 510.0,159.0 521.0,169.5 Q 532.0,180.0 532.0,193.0 Q 532.0,198.0 529.5,214.5 Q 527.0,231.0 527.0,238.0"/>
  </g>
</svg>
